Papirus/64x64/apps/com.github.huluti.Curtail.svg

<?xml version="1.0" encoding="UTF-8" standalone="no"?>
<svg
   id="_图层_1"
   version="1.1"
   viewBox="0 0 64 64" width="64" height="64"
   sodipodi:docname="com.github.huluti.Curtail.svg"
   xml:space="preserve"
   inkscape:version="1.4 (e7c3feb100, 2024-10-09)"
   xmlns:inkscape="http://www.inkscape.org/namespaces/inkscape"
   xmlns:sodipodi="http://sodipodi.sourceforge.net/DTD/sodipodi-0.dtd"
   xmlns="http://www.w3.org/2000/svg"
   xmlns:svg="http://www.w3.org/2000/svg"><sodipodi:namedview
     id="namedview26"
     pagecolor="#505050"
     bordercolor="#eeeeee"
     borderopacity="1"
     inkscape:showpageshadow="0"
     inkscape:pageopacity="0"
     inkscape:pagecheckerboard="0"
     inkscape:deskcolor="#505050"
     inkscape:zoom="10.6875"
     inkscape:cx="32"
     inkscape:cy="26.011696"
     inkscape:window-width="1920"
     inkscape:window-height="939"
     inkscape:window-x="0"
     inkscape:window-y="34"
     inkscape:window-maximized="1"
     inkscape:current-layer="_图层_1" /><!-- Generator: Adobe Illustrator 29.0.1, SVG Export Plug-In . SVG Version: 2.1.0 Build 192)  --><defs
     id="defs6"><style
       id="style1">
      .st0 {
        fill-opacity: .5;
      }

      .st0, .st1, .st2, .st3, .st4, .st5, .st6, .st7 {
        fill: #fff;
      }

      .st8 {
        fill: #133c9a;
      }

      .st2, .st9 {
        display: none;
      }

      .st3 {
        fill-opacity: .2;
      }

      .st4 {
        fill-opacity: .9;
      }

      .st10 {
        fill: #3370ff;
      }

      .st11 {
        fill: url(#_未命名的渐变_3);
      }

      .st12 {
        fill: url(#_未命名的渐变);
      }

      .st5 {
        fill-opacity: .3;
      }

      .st6 {
        fill-opacity: 0;
      }

      .st7 {
        fill-opacity: .7;
      }

      .st13 {
        fill: #00d6b9;
      }

      .st14 {
        fill: url(#_未命名的渐变_2);
      }
    </style><radialGradient
       id="_未命名的渐变"
       data-name="未命名的渐变"
       cx="123.9"
       cy="-40.2"
       fx="123.9"
       fy="-40.2"
       r="59.4"
       gradientTransform="translate(-26.8 25.5) scale(.6 -.7)"
       gradientUnits="userSpaceOnUse"><stop
         offset="0"
         stop-color="#db202e"
         id="stop1" /><stop
         offset="1"
         stop-color="#e01b24"
         id="stop2" /></radialGradient><radialGradient
       id="_未命名的渐变_2"
       data-name="未命名的渐变 2"
       cx="67.6"
       cy="26.8"
       fx="67.6"
       fy="26.8"
       r="105.2"
       gradientTransform="translate(-26.6 25.3) scale(.6 -.7)"
       gradientUnits="userSpaceOnUse"><stop
         offset="0"
         stop-color="#ffb648"
         id="stop3" /><stop
         offset="1"
         stop-color="#ff7800"
         stop-opacity="0"
         id="stop4" /></radialGradient><radialGradient
       id="_未命名的渐变_3"
       data-name="未命名的渐变 3"
       cx="61.7"
       cy="18.6"
       fx="61.7"
       fy="18.6"
       r="68"
       gradientTransform="translate(-26.8 25.8) scale(.6 -.7)"
       gradientUnits="userSpaceOnUse"><stop
         offset="0"
         stop-color="#c64600"
         id="stop5" /><stop
         offset="1"
         stop-color="#a51d2d"
         id="stop6" /></radialGradient></defs><path
     class="st1"
     d="M47.5,64.1H13.8c-7.6,0-13.8-6.3-13.8-13.8V13.7C0,6.2,6.2,0,13.7,0h36.6c7.5,0,13.7,6.2,13.7,13.7v36.6c0,7.5-6.2,13.7-13.7,13.7h-2.9.1Z"
     id="path6"
     style="fill:#f9f9f9;fill-opacity:1" /><g
     id="g28"
     transform="matrix(0.89520468,0,0,0.84780123,3.2598831,4.8047856)"><rect
       style="opacity:0.2"
       width="50"
       height="38"
       x="7"
       y="23"
       rx="4.4000001"
       ry="4.4000001"
       id="rect1" /><rect
       style="fill:#5e5c64"
       width="50"
       height="38"
       x="7"
       y="22"
       rx="4.4000001"
       ry="4.4000001"
       id="rect2" /><path
       style="fill:#d0d0d0"
       d="M 11,32 H 53 V 56 H 11 Z m 0,0"
       id="path2" /><path
       style="opacity:0.2"
       d="M 15.577916,34.76235 40.673622,14.463221 c 1.15786,-0.938299 2.83366,-0.775035 3.753192,0.364059 l 10.407596,12.86406 -1.608244,14.051944 -19.34394,15.64705 c -1.159736,0.9383 -2.83366,0.775034 -3.755068,-0.36218 L 15.148175,38.509912 C 14.228644,37.370818 14.41818,35.700648 15.577916,34.76235 Z m 0,0"
       id="path3" /><path
       style="fill:#ffffff"
       d="M 15.577916,33.76235 40.673622,13.463221 c 1.15786,-0.938299 2.83366,-0.775035 3.753192,0.364059 l 10.407596,12.86406 -1.608244,14.051944 -19.34394,15.64705 c -1.159736,0.9383 -2.83366,0.775034 -3.755068,-0.36218 L 15.148175,37.509912 C 14.228644,36.370818 14.41818,34.700648 15.577916,33.76235 Z m 0,0"
       id="path4-5" /><path
       style="fill:#e7822b"
       d="m 17.255593,35.835988 14.963969,18.499474 19.343942,-15.64705 -2.88245,-3.56553 c -0.921408,-1.139092 -0.729994,-2.81114 0.427864,-3.74756 L 52.76828,28.41593 42.351298,15.534981 Z m 0,0"
       id="path5-3" /><rect
       style="opacity:0.2"
       width="50"
       height="38"
       x="7"
       y="11"
       rx="4.4000001"
       ry="4.4000001"
       id="rect5" /><rect
       style="fill:#b6b5b2"
       width="50"
       height="38"
       x="7"
       y="10"
       rx="4.4000001"
       ry="4.4000001"
       id="rect6" /><path
       style="opacity:0.2;fill:#ffffff"
       d="M 11.398438,10 C 8.9608369,10 7,11.960836 7,14.398438 v 1 C 7,12.960836 8.9608369,11 11.398438,11 H 52.601562 C 55.039162,11 57,12.960836 57,15.398438 v -1 C 57,11.960836 55.039162,10 52.601562,10 Z"
       id="path6-5" /><circle
       style="fill:#a0a0a0"
       cx="32"
       cy="30"
       r="9"
       id="circle6" /><path
       style="fill:#e7822b;fill-opacity:0"
       d="M 17.255593,36.139144 32.219562,54.63862 51.563504,38.99157 48.681054,35.426038 c -0.921408,-1.139092 -0.729994,-2.81114 0.427864,-3.74756 L 52.76828,28.719086 42.351298,15.838138 Z m 0,0"
       id="path7-6" /><circle
       style="opacity:0.2"
       cx="32"
       cy="28"
       r="9"
       id="circle7" /><circle
       style="fill:#ebebeb"
       cx="32"
       cy="27"
       r="9"
       id="circle8" /><path
       style="fill:#a0a0a0"
       d="M 29.499314,18.498222 29,19.498496 29.499314,20.498768 29,21.499042 29.499314,22.499316 29,23.49959 29.499314,24.499864 29,25.500138 29.499314,26.50041 29,27.500684 V 28 c 0,1.072544 0.571584,2.062964 1.499588,2.598414 0.928006,0.535448 2.072818,0.535448 3.000822,0 C 34.428414,30.062964 35,29.072544 35,28 V 26.50041 L 34.500686,25.500138 35,24.499864 34.500686,23.49959 35,22.499316 34.500686,21.499042 35,20.498768 34.500686,19.498496 35,18.498222 34.500686,17.497947 Z m 0,0"
       id="path8-2" /><path
       style="fill:#ffffff;fill-opacity:0.38189"
       d="m 34.501604,21.497796 c 0,0 -0.677292,1.830466 -2.456102,2.011138 -1.780456,0.179032 -2.546606,-1.010596 -2.546606,-1.010596 l -0.497756,1.00054 c 0,0 1.045456,1.391176 3.044362,1.27456 1.997262,-0.114974 2.893088,-2.25539 2.95386,-2.2751 z m 0,2.001082 c 0,0 -0.677292,1.827952 -2.456102,2.008626 -1.780456,0.17903 -2.546606,-1.008082 -2.546606,-1.008082 l -0.497756,1.00054 c 0,0 1.045456,1.391176 3.044362,1.27456 1.997262,-0.116618 2.893088,-2.255392 2.95386,-2.2751 z m 0,2.001084 c 0,0 -0.722542,1.827954 -2.501352,2.008626 -1.780456,0.179032 -2.501356,-1.008084 -2.501356,-1.008082 l -0.497756,1.000538 c 0,0 1.000206,1.391178 2.999112,1.274562 1.997262,-0.116618 2.938338,-2.257034 2.99911,-2.2751 z"
       id="path9-9" /><path
       style="opacity:0.2"
       d="m 14.882812,2.9850546 a 2.0002,2.0002 0 0 0 -1.078124,3.6210938 l 17.625,13.1054696 A 2.0015746,2.0015746 0 0 0 34.625,18.153023 L 50.191406,6.6061484 a 2.0002,2.0002 0 0 0 -1.132812,-3.6210938 2.0002,2.0002 0 0 0 -1.25,0.4101562 L 31.980468,15.133492 16.195312,3.3952108 a 2.0002,2.0002 0 0 0 -1.3125,-0.4101562 z M 38.957032,20.981148 A 2.0002,2.0002 0 0 0 37.75,24.56318 l 10,8 a 2.0009764,2.0009764 0 1 0 2.5,-3.125 l -10,-8 a 2.0002,2.0002 0 0 0 -1.292968,-0.457032 z m -13.972656,0.0039 A 2.0002,2.0002 0 0 0 23.75,21.43818 l -10,8 a 2.0009764,2.0009764 0 1 0 2.5,3.125 l 10,-8 a 2.0002,2.0002 0 0 0 -1.265624,-3.578126 z"
       id="path10-1" /><path
       style="fill:none;stroke:#d0d0d0;stroke-width:4;stroke-linecap:round"
       d="M 32.257774,16.415912 49,4"
       id="path11-2" /><path
       style="fill:none;stroke:#d0d0d0;stroke-width:4;stroke-linecap:round"
       d="M 32.625058,17.106823 15,4"
       id="path12-7" /><circle
       style="fill:#a0a0a0"
       cx="32"
       cy="18"
       r="7"
       id="circle12" /><circle
       style="opacity:0.2"
       cx="32"
       cy="15.906"
       r="7"
       id="circle13" /><path
       style="fill:none;stroke:#d0d0d0;stroke-width:4;stroke-linecap:round"
       d="M 15,30 25,22"
       id="path13-0" /><path
       style="fill:none;stroke:#d0d0d0;stroke-width:4;stroke-linecap:round"
       d="M 49,30 39,22"
       id="path14-9" /><path
       style="opacity:0.2;fill:#ffffff"
       d="m 14.882812,1.984375 a 2.0002,2.0002 0 0 0 -1.841796,2.5 2.0002,2.0002 0 0 1 1.841796,-1.5 2.0002,2.0002 0 0 1 1.3125,0.4101562 L 31.980469,15.132812 47.808594,3.3945312 a 2.0002,2.0002 0 0 1 1.25,-0.4101562 2.0002,2.0002 0 0 1 1.894531,1.5019531 2.0002,2.0002 0 0 0 -1.894531,-2.5019531 2.0002,2.0002 0 0 0 -1.25,0.4101562 L 31.980469,14.132812 16.195312,2.3945312 A 2.0002,2.0002 0 0 0 14.882812,1.984375 Z M 38.957031,19.980469 A 2.0002,2.0002 0 0 0 37.042969,22.478516 2.0002,2.0002 0 0 1 38.957031,20.980469 2.0002,2.0002 0 0 1 40.25,21.4375 l 10,8 A 2.0009764,2.0009764 0 0 1 50.933594,30.498047 2.0009764,2.0009764 0 0 0 50.25,28.4375 l -10,-8 a 2.0002,2.0002 0 0 0 -1.292969,-0.457031 z m -13.972656,0.0039 A 2.0002,2.0002 0 0 0 23.75,20.4375 l -10,8 A 2.0009764,2.0009764 0 0 0 13.066406,30.5 2.0009764,2.0009764 0 0 1 13.75,29.4375 l 10,-8 a 2.0002,2.0002 0 0 1 1.234375,-0.453125 2.0002,2.0002 0 0 1 1.974609,1.498047 2.0002,2.0002 0 0 0 -1.974609,-2.498047 z"
       id="path15-3" /><circle
       style="fill:#ebebeb"
       cx="32"
       cy="14.906"
       r="7"
       id="circle15" /><path
       style="opacity:0.2;fill:#ffffff"
       d="m 32,7.90625 a 7,7 0 0 0 -7,7 7,7 0 0 0 0.02539,0.443359 A 7,7 0 0 1 32,8.90625 7,7 0 0 1 38.974609,15.382812 7,7 0 0 0 39,14.90625 a 7,7 0 0 0 -7,-7 z"
       id="path16-6" /></g></svg>

<svg xmlns="http://www.w3.org/2000/svg" width="64" height="64" version="1.1">
 <rect style="opacity:0.2" width="50" height="38" x="7" y="23" rx="4.4" ry="4.4"/>
 <rect style="fill:#5e5c64" width="50" height="38" x="7" y="22" rx="4.4" ry="4.4"/>
 <path style="fill:#d0d0d0" d="M 11,32 H 53 V 56 H 11 Z M 11,32"/>
 <path style="opacity:0.2" d="M 15.577916,34.76235 40.673622,14.463221 C 41.831482,13.524922 43.507282,13.688186 44.426814,14.82728 L 54.83441,27.69134 53.226166,41.743284 33.882226,57.390334 C 32.72249,58.328634 31.048566,58.165368 30.127158,57.028154 L 15.148175,38.509912 C 14.228644,37.370818 14.41818,35.700648 15.577916,34.76235 Z M 15.577916,34.76235"/>
 <path style="fill:#ffffff" d="M 15.577916,33.76235 40.673622,13.463221 C 41.831482,12.524922 43.507282,12.688186 44.426814,13.82728 L 54.83441,26.69134 53.226166,40.743284 33.882226,56.390334 C 32.72249,57.328634 31.048566,57.165368 30.127158,56.028154 L 15.148175,37.509912 C 14.228644,36.370818 14.41818,34.700648 15.577916,33.76235 Z M 15.577916,33.76235"/>
 <path style="fill:#e7822b" d="M 17.255593,35.835988 32.219562,54.335462 51.563504,38.688412 48.681054,35.122882 C 47.759646,33.98379 47.95106,32.311742 49.108918,31.375322 L 52.76828,28.41593 42.351298,15.534981 Z M 17.255593,35.835988"/>
 <rect style="opacity:0.2" width="50" height="38" x="7" y="11" rx="4.4" ry="4.4"/>
 <rect style="fill:#b6b5b2" width="50" height="38" x="7" y="10" rx="4.4" ry="4.4"/>
 <path style="opacity:0.2;fill:#ffffff" d="M 11.398438 10 C 8.9608369 10 7 11.960836 7 14.398438 L 7 15.398438 C 7 12.960836 8.9608369 11 11.398438 11 L 52.601562 11 C 55.039162 11 57 12.960836 57 15.398438 L 57 14.398438 C 57 11.960836 55.039162 10 52.601562 10 L 11.398438 10 z"/>
 <circle style="fill:#a0a0a0" cx="32" cy="30" r="9"/>
 <path style="fill:#e7822b;fill-opacity:0" d="M 17.255593,36.139144 32.219562,54.63862 51.563504,38.99157 48.681054,35.426038 C 47.759646,34.286946 47.95106,32.614898 49.108918,31.678478 L 52.76828,28.719086 42.351298,15.838138 Z M 17.255593,36.139144"/>
 <circle style="opacity:0.2" cx="32" cy="28" r="9"/>
 <circle style="fill:#ebebeb" cx="32" cy="27" r="9"/>
 <path style="fill:#a0a0a0" d="M 29.499314,18.498222 29,19.498496 29.499314,20.498768 29,21.499042 29.499314,22.499316 29,23.49959 29.499314,24.499864 29,25.500138 29.499314,26.50041 29,27.500684 V 28 C 29,29.072544 29.571584,30.062964 30.499588,30.598414 31.427594,31.133862 32.572406,31.133862 33.50041,30.598414 34.428414,30.062964 35,29.072544 35,28 V 26.50041 L 34.500686,25.500138 35,24.499864 34.500686,23.49959 35,22.499316 34.500686,21.499042 35,20.498768 34.500686,19.498496 35,18.498222 34.500686,17.497947 Z M 29.499314,18.498222"/>
 <path style="fill:#ffffff;fill-opacity:0.38189003" d="M 34.501604,21.497796 C 34.501604,21.497796 33.824312,23.328262 32.045502,23.508934 30.265046,23.687966 29.498896,22.498338 29.498896,22.498338 L 29.00114,23.498878 C 29.00114,23.498878 30.046596,24.890054 32.045502,24.773438 34.042764,24.658464 34.93859,22.518048 34.999362,22.498338 Z M 34.501604,23.498878 C 34.501604,23.498878 33.824312,25.32683 32.045502,25.507504 30.265046,25.686534 29.498896,24.499422 29.498896,24.499422 L 29.00114,25.499962 C 29.00114,25.499962 30.046596,26.891138 32.045502,26.774522 34.042764,26.657904 34.93859,24.51913 34.999362,24.499422 Z M 34.501604,25.499962 C 34.501604,25.499962 33.779062,27.327916 32.000252,27.508588 30.219796,27.68762 29.498896,26.500504 29.498896,26.500506 L 29.00114,27.501044 C 29.00114,27.501044 30.001346,28.892222 32.000252,28.775606 33.997514,28.658988 34.93859,26.518572 34.999362,26.500506 Z"/>
 <path style="opacity:0.2" d="M 14.882812,2.9850546 A 2.0002,2.0002 0 0 0 13.804688,6.6061484 L 31.429688,19.711618 A 2.0015746,2.0015746 0 0 0 34.625,18.153023 L 50.191406,6.6061484 A 2.0002,2.0002 0 0 0 49.058594,2.9850546 2.0002,2.0002 0 0 0 47.808594,3.3952108 L 31.980468,15.133492 16.195312,3.3952108 A 2.0002,2.0002 0 0 0 14.882812,2.9850546 Z M 38.957032,20.981148 A 2.0002,2.0002 0 0 0 37.75,24.56318 L 47.75,32.56318 A 2.0009764,2.0009764 0 1 0 50.25,29.43818 L 40.25,21.43818 A 2.0002,2.0002 0 0 0 38.957032,20.981148 Z M 24.984376,20.985054 A 2.0002,2.0002 0 0 0 23.75,21.43818 L 13.75,29.43818 A 2.0009764,2.0009764 0 1 0 16.25,32.56318 L 26.25,24.56318 A 2.0002,2.0002 0 0 0 24.984376,20.985054 Z"/>
 <path style="fill:none;stroke:#d0d0d0;stroke-width:4;stroke-linecap:round" d="M 32.257774,16.415912 49,4"/>
 <path style="fill:none;stroke:#d0d0d0;stroke-width:4;stroke-linecap:round" d="M 32.625058,17.106823 15,4"/>
 <circle style="fill:#a0a0a0" cx="32" cy="18" r="7"/>
 <circle style="opacity:0.2" cx="32" cy="15.906" r="7"/>
 <path style="fill:none;stroke:#d0d0d0;stroke-width:4;stroke-linecap:round" d="M 15,30 25,22"/>
 <path style="fill:none;stroke:#d0d0d0;stroke-width:4;stroke-linecap:round" d="M 49,30 39,22"/>
 <path style="opacity:0.2;fill:#ffffff" d="M 14.882812 1.984375 A 2.0002 2.0002 0 0 0 13.041016 4.484375 A 2.0002 2.0002 0 0 1 14.882812 2.984375 A 2.0002 2.0002 0 0 1 16.195312 3.3945312 L 31.980469 15.132812 L 47.808594 3.3945312 A 2.0002 2.0002 0 0 1 49.058594 2.984375 A 2.0002 2.0002 0 0 1 50.953125 4.4863281 A 2.0002 2.0002 0 0 0 49.058594 1.984375 A 2.0002 2.0002 0 0 0 47.808594 2.3945312 L 31.980469 14.132812 L 16.195312 2.3945312 A 2.0002 2.0002 0 0 0 14.882812 1.984375 z M 38.957031 19.980469 A 2.0002 2.0002 0 0 0 37.042969 22.478516 A 2.0002 2.0002 0 0 1 38.957031 20.980469 A 2.0002 2.0002 0 0 1 40.25 21.4375 L 50.25 29.4375 A 2.0009764 2.0009764 0 0 1 50.933594 30.498047 A 2.0009764 2.0009764 0 0 0 50.25 28.4375 L 40.25 20.4375 A 2.0002 2.0002 0 0 0 38.957031 19.980469 z M 24.984375 19.984375 A 2.0002 2.0002 0 0 0 23.75 20.4375 L 13.75 28.4375 A 2.0009764 2.0009764 0 0 0 13.066406 30.5 A 2.0009764 2.0009764 0 0 1 13.75 29.4375 L 23.75 21.4375 A 2.0002 2.0002 0 0 1 24.984375 20.984375 A 2.0002 2.0002 0 0 1 26.958984 22.482422 A 2.0002 2.0002 0 0 0 24.984375 19.984375 z"/>
 <circle style="fill:#ebebeb" cx="32" cy="14.906" r="7"/>
 <path style="opacity:0.2;fill:#ffffff" d="M 32 7.90625 A 7 7 0 0 0 25 14.90625 A 7 7 0 0 0 25.025391 15.349609 A 7 7 0 0 1 32 8.90625 A 7 7 0 0 1 38.974609 15.382812 A 7 7 0 0 0 39 14.90625 A 7 7 0 0 0 32 7.90625 z"/>
</svg>
